packages/icons/svg/Outline/file-text.svg

<svg fill="none" height="24" viewBox="0 0 24 24" width="24" xmlns="http://www.w3.org/2000/svg"><path clip-rule="evenodd" d="m12 13.9999h-3.00004c-.552 0-1-.448-1-1s.448-1 1-1h3.00004c.552 0 1 .448 1 1s-.448 1-1 1zm-3.00004 2h6.00004c.553 0 1 .448 1 1s-.447 1-1 1h-6.00004c-.552 0-1-.448-1-1s.448-1 1-1zm8.44424 4.0002h-10.88899c-.306 0-.555-.224-.555-.5v-15.00003c0-.276.249-.5.555-.5h5.44499v3.14999c0 1.572 1.217 2.85004 2.714 2.85004h3.286v9.5c0 .276-.249.5-.556.5zm-3.4439-15.02207 2.742 3.022h-2.028c-.394 0-.714-.381-.714-.85zm5.7399 3.34997-5.444-6c-.19-.209-.458-.328-.741-.328h-6.99996c-1.409 0-2.555 1.122-2.555 2.5v15c0 1.378 1.146 2.5 2.555 2.5h10.88896c1.409 0 2.556-1.122 2.556-2.5v-10.5c0-.249-.093-.488-.26-.672z" fill="#6b7280" fill-rule="evenodd"/></svg>

<svg width="24" height="24" viewBox="0 0 24 24" fill="none" xmlns="http://www.w3.org/2000/svg">
<g id="Icon/Outline/file-text">
<path id="Mask" fill-rule="evenodd" clip-rule="evenodd" d="M11.9999 14H8.99994C8.44794 14 7.99994 13.552 7.99994 13C7.99994 12.448 8.44794 12 8.99994 12H11.9999C12.5519 12 12.9999 12.448 12.9999 13C12.9999 13.552 12.5519 14 11.9999 14ZM8.99994 16H14.9999C15.5529 16 15.9999 16.448 15.9999 17C15.9999 17.552 15.5529 18 14.9999 18H8.99994C8.44794 18 7.99994 17.552 7.99994 17C7.99994 16.448 8.44794 16 8.99994 16ZM17.4442 20H6.55524C6.24924 20 6.00024 19.776 6.00024 19.5V4.5C6.00024 4.224 6.24924 4 6.55524 4H12.0002V7.15C12.0002 8.722 13.2172 10 14.7142 10H18.0002V19.5C18.0002 19.776 17.7512 20 17.4442 20ZM14.0002 4.978L16.7422 8H14.7142C14.3202 8 14.0002 7.619 14.0002 7.15V4.978ZM19.7402 8.328L14.2962 2.328C14.1062 2.119 13.8382 2 13.5552 2H6.55524C5.14624 2 4.00024 3.122 4.00024 4.5V19.5C4.00024 20.878 5.14624 22 6.55524 22H17.4442C18.8532 22 20.0002 20.878 20.0002 19.5V9C20.0002 8.751 19.9072 8.512 19.7402 8.328Z" fill="#000000"/>
</g>
</svg>
